packages/icons/svgs/solid/statistics-solid.svg

<svg width="12" height="12" viewBox="0 0 12 12" fill="none" xmlns="http://www.w3.org/2000/svg">
<g clip-path="url(#clip0_867_676)">
<path d="M2.625 9H0.375C0.167893 9 0 9.16789 0 9.375V11.625C0 11.8321 0.167893 12 0.375 12H2.625C2.83211 12 3 11.8321 3 11.625V9.375C3 9.16789 2.83211 9 2.625 9Z" fill="black"/>
<path d="M7.125 5.25H4.875C4.66789 5.25 4.5 5.41789 4.5 5.625V11.625C4.5 11.8321 4.66789 12 4.875 12H7.125C7.33211 12 7.5 11.8321 7.5 11.625V5.625C7.5 5.41789 7.33211 5.25 7.125 5.25Z" fill="black"/>
<path d="M11.625 8.25H9.375C9.16789 8.25 9 8.41789 9 8.625V11.625C9 11.8321 9.16789 12 9.375 12H11.625C11.8321 12 12 11.8321 12 11.625V8.625C12 8.41789 11.8321 8.25 11.625 8.25Z" fill="black"/>
<path d="M5.29725 2.81775C5.51219 2.93727 5.75406 3 6 3C6.24594 3 6.48781 2.93727 6.70275 2.81775L9.075 4.8C9.02694 4.94523 9.00164 5.09703 9 5.25C8.99589 5.58324 9.1015 5.90859 9.30056 6.17588C9.49962 6.44317 9.78107 6.63756 10.1015 6.72909C10.422 6.82062 10.7636 6.8042 11.0738 6.68237C11.384 6.56054 11.6456 6.34005 11.8181 6.05491C11.9906 5.76977 12.0645 5.4358 12.0285 5.10448C11.9924 4.77317 11.8484 4.46291 11.6186 4.22153C11.3888 3.98016 11.086 3.82107 10.7569 3.76879C10.4277 3.71651 10.0905 3.77395 9.79725 3.93225L7.425 1.95C7.47306 1.80477 7.49836 1.65297 7.5 1.5C7.5 1.10218 7.34197 0.720644 7.06066 0.43934C6.77936 0.158035 6.39783 0 6 0C5.60218 0 5.22065 0.158035 4.93934 0.43934C4.65804 0.720644 4.5 1.10218 4.5 1.5C4.50164 1.65297 4.52694 1.80477 4.575 1.95L2.20275 3.93225C1.9872 3.81426 1.74573 3.75164 1.5 3.75C1.20333 3.75 0.913319 3.83797 0.666645 4.0028C0.419972 4.16762 0.227713 4.40189 0.114181 4.67597C0.000649922 4.95006 -0.0290551 5.25166 0.0288228 5.54264C0.0867006 5.83361 0.229562 6.10088 0.439341 6.31066C0.649119 6.52044 0.916394 6.6633 1.20737 6.72118C1.49834 6.77906 1.79994 6.74935 2.07403 6.63582C2.34811 6.52229 2.58238 6.33003 2.74721 6.08336C2.91203 5.83668 3 5.54667 3 5.25C2.99836 5.09703 2.97306 4.94523 2.925 4.8L5.29725 2.81775Z" fill="black"/>
</g>
<defs>
<clipPath id="clip0_867_676">
<rect width="12" height="12" fill="white"/>
</clipPath>
</defs>
</svg>

<svg width="12" height="12" viewBox="0 0 12 12" xmlns="http://www.w3.org/2000/svg"><g clip-path="url(#a)"><path d="M2.625 9H.375A.375.375 0 0 0 0 9.375v2.25c0 .207.168.375.375.375h2.25A.375.375 0 0 0 3 11.625v-2.25A.375.375 0 0 0 2.625 9Zm4.5-3.75h-2.25a.375.375 0 0 0-.375.375v6c0 .207.168.375.375.375h2.25a.375.375 0 0 0 .375-.375v-6a.375.375 0 0 0-.375-.375Zm4.5 3h-2.25A.375.375 0 0 0 9 8.625v3c0 .207.168.375.375.375h2.25a.375.375 0 0 0 .375-.375v-3a.375.375 0 0 0-.375-.375Z"/><path d="M5.297 2.818a1.446 1.446 0 0 0 1.406 0L9.075 4.8a1.519 1.519 0 1 0 .722-.868L7.425 1.95c.048-.145.073-.297.075-.45a1.5 1.5 0 1 0-3 0c.002.153.027.305.075.45L2.203 3.932A1.484 1.484 0 0 0 1.5 3.75 1.5 1.5 0 1 0 3 5.25a1.483 1.483 0 0 0-.075-.45l2.372-1.982Z"/></g><defs><clipPath id="a"><path fill="#fff" d="M0 0h12v12H0z"/></clipPath></defs></svg>
